Newaita-dark/mimetypes/22/application-x-firmware.svg

<svg height="22pt" viewBox="0 0 22 22" width="22pt" xmlns="http://www.w3.org/2000/svg" xmlns:xlink="http://www.w3.org/1999/xlink"><linearGradient id="a"><stop offset="0" stop-opacity=".27451"/><stop offset="1" stop-opacity="0"/></linearGradient><linearGradient id="b" gradientUnits="userSpaceOnUse" x1="11.3699116" x2="11.3699116" xlink:href="#a" y1="19.27333615" y2="20.18292934324"/><linearGradient id="c"><stop offset="0" stop-opacity=".313725"/><stop offset=".222222" stop-opacity=".27451"/><stop offset="1" stop-opacity="0"/></linearGradient><radialGradient id="d" cx="450.90894" cy="189.57936" gradientTransform="matrix(.00000012 -.0537161 -.0966889 -.00000007 34.020641 43.721792)" gradientUnits="userSpaceOnUse" r="21.166656" xlink:href="#c"/><radialGradient id="e" cx="450.90894" cy="189.57936" gradientTransform="matrix(-.00000012 .0537161 .0966889 .00000007 -12.645223 -5.175142)" gradientUnits="userSpaceOnUse" r="21.166656" xlink:href="#c"/><radialGradient id="f" cx="450.90894" cy="189.57936" gradientTransform="matrix(-.00000012 -.0537161 .0966889 -.00000007 -12.645223 43.721792)" gradientUnits="userSpaceOnUse" r="21.166656" xlink:href="#c"/><radialGradient id="g" cx="450.90894" cy="189.57936" gradientTransform="matrix(.00000012 .0537161 -.0966889 .00000007 34.020639 -5.175142)" gradientUnits="userSpaceOnUse" r="21.166656" xlink:href="#c"/><linearGradient id="h" gradientUnits="userSpaceOnUse" x1="10.687706" x2="10.687706" y1="19.27332442218" y2="1.99107551259"><stop offset="0" stop-color="#a5d6a7"/><stop offset="1" stop-color="#c8e6c9"/></linearGradient><linearGradient id="i" gradientTransform="matrix(.0205522 0 0 .0752024 10.341666 -11.361824)" gradientUnits="userSpaceOnUse" x1="249.18942" x2="249.18942" xlink:href="#a" y1="233.5" y2="254.66669"/><linearGradient id="j"><stop offset="0" stop-color="#66bb6a"/><stop offset="1" stop-color="#81c784"/></linearGradient><linearGradient id="k" gradientUnits="userSpaceOnUse" x1="14.55348851351" x2="14.55348851351" xlink:href="#j" y1="19.27333515" y2="1.99106705676"/><linearGradient id="l" gradientUnits="userSpaceOnUse" x1="940" x2="940" xlink:href="#j" y1="1695.1182" y2="175.11812"/><path d="m5.457031 19.273438h10.460938v.910156h-10.460938zm0 0" fill="url(#b)"/><path d="m15.917969 19.273438h1.820312v-.910157h-1.820312zm0 0" fill="url(#d)"/><path d="m5.457031 19.273438h-1.820312v.910156h1.820312zm0 0" fill="url(#e)"/><path d="m5.457031 19.273438h-1.820312v-.910157h1.820312zm0 0" fill="url(#f)"/><path d="m15.917969 19.273438h1.820312v.910156h-1.820312zm0 0" fill="url(#g)"/><path d="m12.746094 1.992188h-8.199219c-.503906 0-.910156.40625-.910156.910156v15.460937c0 .503907.40625.910157.910156.910157h12.28125c.503906 0 .910156-.40625.910156-.910157v-11.382812zm0 0" fill="url(#h)"/><path d="m12.734375 6.199219h4.320313l.683593.679687v.910156h-5.003906zm0 0" fill="url(#i)"/><path d="m3.636719 18.011719v.351562c0 .503907.40625.910157.910156.910157h12.28125c.503906 0 .910156-.40625.910156-.910157v-.351562c0 .503906-.40625.910156-.910156.910156h-12.28125c-.503906 0-.910156-.40625-.910156-.910156zm0 0" fill-opacity=".235294"/><path d="m4.546875 1.992188c-.503906 0-.910156.40625-.910156.910156v.339844c0-.503907.40625-.910157.910156-.910157h8.199219l4.992187 4.988281v-.339843l-4.992187-4.988281zm0 0" fill="#fff" fill-opacity=".313725"/><path d="m17.738281 6.980469-4.992187-4.988281v4.078124c0 .503907.40625.910157.910156.910157zm0 0" fill="url(#k)"/><path d="m12.746094 5.855469v.214843c0 .503907.40625.910157.910156.910157h4.082031l-.214843-.214844h-3.867188c-.503906 0-.910156-.40625-.910156-.910156zm0 0" fill-opacity=".235294"/><path d="m12.746094 1.992188v.339843l4.648437 4.648438h.34375zm0 0" fill="#fff" fill-opacity=".392157"/><path d="m12.746094 1.925781c-.035156 0-.0625.03125-.0625.066407v4.078124c0 .539063.433594.972657.972656.972657h4.082031c.023438 0 .046875-.015625.058594-.039063.007813-.023437.003906-.050781-.015625-.070312l-4.988281-4.988282c-.011719-.011718-.027344-.019531-.046875-.019531zm.066406.222657 4.769531 4.765624h-3.925781c-.46875 0-.84375-.375-.84375-.84375zm0 0" fill="#212121"/><path d="m4.546875 1.925781c-.539063 0-.972656.4375-.972656.976563v15.460937c0 .539063.433593.972657.972656.972657h12.28125c.539063 0 .972656-.433594.972656-.972657v-11.382812c0-.015625-.007812-.035157-.019531-.046875l-4.988281-4.988282c-.011719-.011718-.027344-.019531-.046875-.019531zm0 .128907h8.175781l4.949219 4.953124v11.355469c0 .46875-.375.84375-.84375.84375h-12.28125c-.46875 0-.84375-.375-.84375-.84375v-15.460937c0-.472656.375-.847656.84375-.847656zm0 0" fill="#212121"/><path d="m820.079177 695.023115c-10.99394 0-19.926515 8.932576-19.926515 19.926515v40.196592h-20.270076c-32.981819 0-59.779547 26.797727-59.779547 60.123106v19.926516h-40.196591c-10.99394 0-19.926515 8.932576-19.926515 19.926515 0 10.99394 8.932575 19.926516 19.926515 19.926516h40.196591v80.049622h-40.196591c-10.99394 0-19.926515 8.932576-19.926515 19.926515 0 11.3375 8.932575 19.926516 19.926515 19.926516h40.196591v80.049622h-40.196591c-10.99394 0-19.926515 8.932576-19.926515 20.270076 0 10.993939 8.932575 19.926515 19.926515 19.926515h40.196591v19.926516c0 33.325379 26.797728 60.123107 59.779547 60.123107h20.270076v39.85303c0 10.99394 8.932575 19.926516 19.926515 19.926516s19.926515-8.932576 19.926515-19.926516v-39.85303h80.049623v39.85303c0 10.99394 8.932575 19.926516 19.926515 19.926516s19.926515-8.932576 19.926515-19.926516v-39.85303h80.049623v39.85303c0 10.99394 8.932576 19.926516 19.926515 19.926516 11.3375 0 20.270076-8.932576 20.270076-19.926516v-39.85303h19.926515c33.32538 0 59.779547-26.797728 59.779547-60.123107v-19.926516h40.196591c10.99394 0 19.926515-8.932576 19.926515-19.926515 0-11.3375-8.932575-20.270076-19.926515-20.270076h-40.196591v-80.049622h40.196591c10.99394 0 19.926515-8.589016 19.926515-19.926516 0-10.993939-8.932575-19.926515-19.926515-19.926515h-40.196591v-80.049622h40.196591c10.99394 0 19.926515-8.932576 19.926515-19.926516 0-10.993939-8.932575-19.926515-19.926515-19.926515h-40.196591v-19.926516c0-33.325379-26.454167-60.123106-59.779547-60.123106h-19.926515v-40.196592c0-10.993939-8.932576-19.926515-20.270076-19.926515-10.993939 0-19.926515 8.932576-19.926515 19.926515v40.196592h-80.049623v-40.196592c0-10.993939-8.932575-19.926515-19.926515-19.926515s-19.926515 8.932576-19.926515 19.926515v40.196592h-80.049623v-40.196592c0-10.993939-8.932575-19.926515-19.926515-19.926515zm0 0" fill="url(#l)" stroke="#212121" stroke-linecap="round" stroke-linejoin="round" stroke-width="11.338583" transform="scale(.0113699)"/></svg>

<?xml version="1.0" encoding="UTF-8"?>
<svg xmlns="http://www.w3.org/2000/svg" xmlns:xlink="http://www.w3.org/1999/xlink" width="22pt" height="22pt" viewBox="0 0 22 22" version="1.1">
<defs>
<linearGradient id="linear0" gradientUnits="userSpaceOnUse" x1="254" y1="233.5" x2="254" y2="254.66667" gradientTransform="matrix(0.0429729,0,0,0.0429729,0.454795,9.239164)">
<stop offset="0" style="stop-color:rgb(0%,0%,0%);stop-opacity:0.27451;"/>
<stop offset="1" style="stop-color:rgb(0%,0%,0%);stop-opacity:0;"/>
</linearGradient>
<radialGradient id="radial0" gradientUnits="userSpaceOnUse" cx="450.90894" cy="189.57936" fx="450.90894" fy="189.57936" r="21.166656" gradientTransform="matrix(0.000000119742,-0.0537161,-0.0966889,-0.0000000698078,34.020641,43.721792)">
<stop offset="0" style="stop-color:rgb(0%,0%,0%);stop-opacity:0.313725;"/>
<stop offset="0.222222" style="stop-color:rgb(0%,0%,0%);stop-opacity:0.27451;"/>
<stop offset="1" style="stop-color:rgb(0%,0%,0%);stop-opacity:0;"/>
</radialGradient>
<radialGradient id="radial1" gradientUnits="userSpaceOnUse" cx="450.90894" cy="189.57936" fx="450.90894" fy="189.57936" r="21.166656" gradientTransform="matrix(-0.000000119742,0.0537161,0.0966889,0.0000000698078,-12.645223,-5.175142)">
<stop offset="0" style="stop-color:rgb(0%,0%,0%);stop-opacity:0.313725;"/>
<stop offset="0.222222" style="stop-color:rgb(0%,0%,0%);stop-opacity:0.27451;"/>
<stop offset="1" style="stop-color:rgb(0%,0%,0%);stop-opacity:0;"/>
</radialGradient>
<radialGradient id="radial2" gradientUnits="userSpaceOnUse" cx="450.90894" cy="189.57936" fx="450.90894" fy="189.57936" r="21.166656" gradientTransform="matrix(-0.000000119742,-0.0537161,0.0966889,-0.0000000698078,-12.645223,43.721792)">
<stop offset="0" style="stop-color:rgb(0%,0%,0%);stop-opacity:0.313725;"/>
<stop offset="0.222222" style="stop-color:rgb(0%,0%,0%);stop-opacity:0.27451;"/>
<stop offset="1" style="stop-color:rgb(0%,0%,0%);stop-opacity:0;"/>
</radialGradient>
<radialGradient id="radial3" gradientUnits="userSpaceOnUse" cx="450.90894" cy="189.57936" fx="450.90894" fy="189.57936" r="21.166656" gradientTransform="matrix(0.000000119742,0.0537161,-0.0966889,0.0000000698078,34.020639,-5.175142)">
<stop offset="0" style="stop-color:rgb(0%,0%,0%);stop-opacity:0.313725;"/>
<stop offset="0.222222" style="stop-color:rgb(0%,0%,0%);stop-opacity:0.27451;"/>
<stop offset="1" style="stop-color:rgb(0%,0%,0%);stop-opacity:0;"/>
</radialGradient>
<linearGradient id="linear1" gradientUnits="userSpaceOnUse" x1="940" y1="1695.1182" x2="940" y2="175.11812" gradientTransform="matrix(0.0113699,0,0,0.0113699,0,0)">
<stop offset="0" style="stop-color:rgb(64.705882%,83.921569%,65.490196%);stop-opacity:1;"/>
<stop offset="1" style="stop-color:rgb(78.431373%,90.196078%,78.823529%);stop-opacity:1;"/>
</linearGradient>
<linearGradient id="linear2" gradientUnits="userSpaceOnUse" x1="249.18942" y1="233.5" x2="249.18942" y2="254.66669" gradientTransform="matrix(0.0205522,0,0,0.0752024,10.341666,-11.361824)">
<stop offset="0" style="stop-color:rgb(0%,0%,0%);stop-opacity:0.27451;"/>
<stop offset="1" style="stop-color:rgb(0%,0%,0%);stop-opacity:0;"/>
</linearGradient>
<linearGradient id="linear3" gradientUnits="userSpaceOnUse" x1="338.66666" y1="233.5" x2="338.66666" y2="-168.66667" gradientTransform="matrix(0.0429729,0,0,0.0429729,0,9.239163)">
<stop offset="0" style="stop-color:rgb(40%,73.333333%,41.568627%);stop-opacity:1;"/>
<stop offset="1" style="stop-color:rgb(50.588235%,78.039216%,51.764706%);stop-opacity:1;"/>
</linearGradient>
<linearGradient id="linear4" gradientUnits="userSpaceOnUse" x1="940" y1="1695.1182" x2="940" y2="175.11812" >
<stop offset="0" style="stop-color:rgb(40%,73.333333%,41.568627%);stop-opacity:1;"/>
<stop offset="1" style="stop-color:rgb(50.588235%,78.039216%,51.764706%);stop-opacity:1;"/>
</linearGradient>
</defs>
<g id="surface1">
<path style=" stroke:none;fill-rule:nonzero;fill:url(#linear0);" d="M 5.457031 19.273438 L 15.917969 19.273438 L 15.917969 20.183594 L 5.457031 20.183594 Z M 5.457031 19.273438 "/>
<path style=" stroke:none;fill-rule:nonzero;fill:url(#radial0);" d="M 15.917969 19.273438 L 17.738281 19.273438 L 17.738281 18.363281 L 15.917969 18.363281 Z M 15.917969 19.273438 "/>
<path style=" stroke:none;fill-rule:nonzero;fill:url(#radial1);" d="M 5.457031 19.273438 L 3.636719 19.273438 L 3.636719 20.183594 L 5.457031 20.183594 Z M 5.457031 19.273438 "/>
<path style=" stroke:none;fill-rule:nonzero;fill:url(#radial2);" d="M 5.457031 19.273438 L 3.636719 19.273438 L 3.636719 18.363281 L 5.457031 18.363281 Z M 5.457031 19.273438 "/>
<path style=" stroke:none;fill-rule:nonzero;fill:url(#radial3);" d="M 15.917969 19.273438 L 17.738281 19.273438 L 17.738281 20.183594 L 15.917969 20.183594 Z M 15.917969 19.273438 "/>
<path style=" stroke:none;fill-rule:nonzero;fill:url(#linear1);" d="M 12.746094 1.992188 L 4.546875 1.992188 C 4.042969 1.992188 3.636719 2.398438 3.636719 2.902344 L 3.636719 18.363281 C 3.636719 18.867188 4.042969 19.273438 4.546875 19.273438 L 16.828125 19.273438 C 17.332031 19.273438 17.738281 18.867188 17.738281 18.363281 L 17.738281 6.980469 Z M 12.746094 1.992188 "/>
<path style=" stroke:none;fill-rule:nonzero;fill:url(#linear2);" d="M 12.734375 6.199219 L 17.054688 6.199219 L 17.738281 6.878906 L 17.738281 7.789062 L 12.734375 7.789062 Z M 12.734375 6.199219 "/>
<path style=" stroke:none;fill-rule:nonzero;fill:rgb(0%,0%,0%);fill-opacity:0.235294;" d="M 3.636719 18.011719 L 3.636719 18.363281 C 3.636719 18.867188 4.042969 19.273438 4.546875 19.273438 L 16.828125 19.273438 C 17.332031 19.273438 17.738281 18.867188 17.738281 18.363281 L 17.738281 18.011719 C 17.738281 18.515625 17.332031 18.921875 16.828125 18.921875 L 4.546875 18.921875 C 4.042969 18.921875 3.636719 18.515625 3.636719 18.011719 Z M 3.636719 18.011719 "/>
<path style=" stroke:none;fill-rule:nonzero;fill:rgb(100%,100%,100%);fill-opacity:0.313725;" d="M 4.546875 1.992188 C 4.042969 1.992188 3.636719 2.398438 3.636719 2.902344 L 3.636719 3.242188 C 3.636719 2.738281 4.042969 2.332031 4.546875 2.332031 L 12.746094 2.332031 L 17.738281 7.320312 L 17.738281 6.980469 L 12.746094 1.992188 Z M 4.546875 1.992188 "/>
<path style=" stroke:none;fill-rule:nonzero;fill:url(#linear3);" d="M 17.738281 6.980469 L 12.746094 1.992188 L 12.746094 6.070312 C 12.746094 6.574219 13.152344 6.980469 13.65625 6.980469 Z M 17.738281 6.980469 "/>
<path style=" stroke:none;fill-rule:nonzero;fill:rgb(0%,0%,0%);fill-opacity:0.235294;" d="M 12.746094 5.855469 L 12.746094 6.070312 C 12.746094 6.574219 13.152344 6.980469 13.65625 6.980469 L 17.738281 6.980469 L 17.523438 6.765625 L 13.65625 6.765625 C 13.152344 6.765625 12.746094 6.359375 12.746094 5.855469 Z M 12.746094 5.855469 "/>
<path style=" stroke:none;fill-rule:nonzero;fill:rgb(100%,100%,100%);fill-opacity:0.392157;" d="M 12.746094 1.992188 L 12.746094 2.332031 L 17.394531 6.980469 L 17.738281 6.980469 Z M 12.746094 1.992188 "/>
<path style=" stroke:none;fill-rule:nonzero;fill:rgb(12.941176%,12.941176%,12.941176%);fill-opacity:1;" d="M 12.746094 1.925781 C 12.710938 1.925781 12.683594 1.957031 12.683594 1.992188 L 12.683594 6.070312 C 12.683594 6.609375 13.117188 7.042969 13.65625 7.042969 L 17.738281 7.042969 C 17.761719 7.042969 17.785156 7.027344 17.796875 7.003906 C 17.804688 6.980469 17.800781 6.953125 17.78125 6.933594 L 12.792969 1.945312 C 12.78125 1.933594 12.765625 1.925781 12.746094 1.925781 Z M 12.8125 2.148438 L 17.582031 6.914062 L 13.65625 6.914062 C 13.1875 6.914062 12.8125 6.539062 12.8125 6.070312 Z M 12.8125 2.148438 "/>
<path style=" stroke:none;fill-rule:nonzero;fill:rgb(12.941176%,12.941176%,12.941176%);fill-opacity:1;" d="M 4.546875 1.925781 C 4.007812 1.925781 3.574219 2.363281 3.574219 2.902344 L 3.574219 18.363281 C 3.574219 18.902344 4.007812 19.335938 4.546875 19.335938 L 16.828125 19.335938 C 17.367188 19.335938 17.800781 18.902344 17.800781 18.363281 L 17.800781 6.980469 C 17.800781 6.964844 17.792969 6.945312 17.78125 6.933594 L 12.792969 1.945312 C 12.78125 1.933594 12.765625 1.925781 12.746094 1.925781 Z M 4.546875 2.054688 L 12.722656 2.054688 L 17.671875 7.007812 L 17.671875 18.363281 C 17.671875 18.832031 17.296875 19.207031 16.828125 19.207031 L 4.546875 19.207031 C 4.078125 19.207031 3.703125 18.832031 3.703125 18.363281 L 3.703125 2.902344 C 3.703125 2.429688 4.078125 2.054688 4.546875 2.054688 Z M 4.546875 2.054688 "/>
<path style="fill-rule:nonzero;fill:url(#linear4);stroke-width:11.338583;stroke-linecap:round;stroke-linejoin:round;stroke:rgb(12.941176%,12.941176%,12.941176%);stroke-opacity:1;stroke-miterlimit:4;" d="M 820.079177 695.023115 C 809.085237 695.023115 800.152662 703.955691 800.152662 714.94963 L 800.152662 755.146222 L 779.882586 755.146222 C 746.900767 755.146222 720.103039 781.943949 720.103039 815.269328 L 720.103039 835.195844 L 679.906448 835.195844 C 668.912508 835.195844 659.979933 844.12842 659.979933 855.122359 C 659.979933 866.116299 668.912508 875.048875 679.906448 875.048875 L 720.103039 875.048875 L 720.103039 955.098497 L 679.906448 955.098497 C 668.912508 955.098497 659.979933 964.031073 659.979933 975.025012 C 659.979933 986.362512 668.912508 994.951528 679.906448 994.951528 L 720.103039 994.951528 L 720.103039 1075.00115 L 679.906448 1075.00115 C 668.912508 1075.00115 659.979933 1083.933726 659.979933 1095.271226 C 659.979933 1106.265165 668.912508 1115.197741 679.906448 1115.197741 L 720.103039 1115.197741 L 720.103039 1135.124257 C 720.103039 1168.449636 746.900767 1195.247364 779.882586 1195.247364 L 800.152662 1195.247364 L 800.152662 1235.100394 C 800.152662 1246.094334 809.085237 1255.02691 820.079177 1255.02691 C 831.073117 1255.02691 840.005692 1246.094334 840.005692 1235.100394 L 840.005692 1195.247364 L 920.055315 1195.247364 L 920.055315 1235.100394 C 920.055315 1246.094334 928.98789 1255.02691 939.98183 1255.02691 C 950.97577 1255.02691 959.908345 1246.094334 959.908345 1235.100394 L 959.908345 1195.247364 L 1039.957968 1195.247364 L 1039.957968 1235.100394 C 1039.957968 1246.094334 1048.890544 1255.02691 1059.884483 1255.02691 C 1071.221983 1255.02691 1080.154559 1246.094334 1080.154559 1235.100394 L 1080.154559 1195.247364 L 1100.081074 1195.247364 C 1133.406454 1195.247364 1159.860621 1168.449636 1159.860621 1135.124257 L 1159.860621 1115.197741 L 1200.057212 1115.197741 C 1211.051152 1115.197741 1219.983727 1106.265165 1219.983727 1095.271226 C 1219.983727 1083.933726 1211.051152 1075.00115 1200.057212 1075.00115 L 1159.860621 1075.00115 L 1159.860621 994.951528 L 1200.057212 994.951528 C 1211.051152 994.951528 1219.983727 986.362512 1219.983727 975.025012 C 1219.983727 964.031073 1211.051152 955.098497 1200.057212 955.098497 L 1159.860621 955.098497 L 1159.860621 875.048875 L 1200.057212 875.048875 C 1211.051152 875.048875 1219.983727 866.116299 1219.983727 855.122359 C 1219.983727 844.12842 1211.051152 835.195844 1200.057212 835.195844 L 1159.860621 835.195844 L 1159.860621 815.269328 C 1159.860621 781.943949 1133.406454 755.146222 1100.081074 755.146222 L 1080.154559 755.146222 L 1080.154559 714.94963 C 1080.154559 703.955691 1071.221983 695.023115 1059.884483 695.023115 C 1048.890544 695.023115 1039.957968 703.955691 1039.957968 714.94963 L 1039.957968 755.146222 L 959.908345 755.146222 L 959.908345 714.94963 C 959.908345 703.955691 950.97577 695.023115 939.98183 695.023115 C 928.98789 695.023115 920.055315 703.955691 920.055315 714.94963 L 920.055315 755.146222 L 840.005692 755.146222 L 840.005692 714.94963 C 840.005692 703.955691 831.073117 695.023115 820.079177 695.023115 Z M 820.079177 695.023115 " transform="matrix(0.0113699,0,0,0.0113699,0,0)"/>
</g>
</svg>
